X: 1134
T: The Omnibus
T: The Stage
T: The Merrymaker's Club
T: Cumann Na Sugairead
T: The Norfolk Hornpipe
C: James Hill
R: Hornpipe
M: 4/4
L: 1/8
K: G Major
|: (3def |
g2 g>e d>gb>d | c>ea>c b>dg>d | b>g (3ggg f>ga>g | f>gf>e d>e (3fed |
g>a (3gfe d2 b>d | c>ea>c (3bcd g>d | e>g (3ggg d>g (3ggg | e>c (3AGF G2 :|
|: A2 |
B>G (3GGG D>GD>B, | G,2 (3GAB c>BA>^G | A2 A>B c2 (3BAG | (3ABA (3GFE D2 (3CB,A, |
G,>B,D>F B>dG>d | c>Bc>d e2 (3gfe | d>bc>a B>g (3ggg | e>cA>F G2 :|
